assets/svg/26D4.svg

<svg xmlns="http://www.w3.org/2000/svg" viewBox="0 0 64 64" enable-background="new 0 0 64 64"><path fill="#be1e2d" d="m63.73 33.992c-.146 16.765-13.855 30.23-30.624 30.09l-3.199-.029c-16.769-.151-30.23-13.861-30.08-30.625l.027-3.201c.15-16.765 13.86-30.23 30.625-30.09l3.2.03c16.765.147 30.23 13.86 30.09 30.624l-.032 3.201"/><path fill="#8b182c" d="m46.595 3.21c1.823 3.949 2.854 8.333 2.814 12.97l-.027 3.202c-.152 16.768-13.861 30.23-30.625 30.08l-3.2-.027c-4.639-.042-9.01-1.149-12.924-3.044 4.771 10.326 15.15 17.545 27.27 17.654l3.199.029c16.769.147 30.478-13.321 30.624-30.09l.031-3.202c.105-12.13-6.929-22.627-17.17-27.58"/><path fill="#fff" d="m58.28 34.29c-.034 3.737-3.094 6.744-6.833 6.711l-39.463-.352c-3.74-.033-6.743-3.093-6.708-6.833l.008-.97c.033-3.74 3.091-6.744 6.831-6.711l39.463.351c3.742.034 6.742 3.093 6.709 6.833l-.007.971"/></svg>

<?xml version="1.0" encoding="UTF-8" standalone="no"?>
<!-- Generator: Adobe Illustrator 16.0.0, SVG Export Plug-In . SVG Version: 6.00 Build 0)  -->

<svg
   xmlns:dc="http://purl.org/dc/elements/1.1/"
   xmlns:cc="http://creativecommons.org/ns#"
   xmlns:rdf="http://www.w3.org/1999/02/22-rdf-syntax-ns#"
   xmlns:svg="http://www.w3.org/2000/svg"
   xmlns="http://www.w3.org/2000/svg"
   xmlns:sodipodi="http://sodipodi.sourceforge.net/DTD/sodipodi-0.dtd"
   xmlns:inkscape="http://www.inkscape.org/namespaces/inkscape"
   version="1.1"
   id="Layer_1"
   x="0px"
   y="0px"
   width="64px"
   height="64px"
   viewBox="0 0 64 64"
   enable-background="new 0 0 64 64"
   xml:space="preserve"
   inkscape:version="0.48.5 r10040"
   sodipodi:docname="26D4.svg"
   inkscape:export-filename="D:\TESTINGEMOJI\SVGTEST\26D4.png"
   inkscape:export-xdpi="90"
   inkscape:export-ydpi="90"><metadata
   id="metadata3947"><rdf:RDF><cc:Work
       rdf:about=""><dc:format>image/svg+xml</dc:format><dc:type
         rdf:resource="http://purl.org/dc/dcmitype/StillImage" /><dc:title></dc:title></cc:Work></rdf:RDF></metadata><defs
   id="defs3945" /><sodipodi:namedview
   pagecolor="#ffffff"
   bordercolor="#666666"
   borderopacity="1"
   objecttolerance="10"
   gridtolerance="10"
   guidetolerance="10"
   inkscape:pageopacity="0"
   inkscape:pageshadow="2"
   inkscape:window-width="640"
   inkscape:window-height="480"
   id="namedview3943"
   showgrid="false"
   inkscape:zoom="3.6875"
   inkscape:cx="32"
   inkscape:cy="32"
   inkscape:window-x="660"
   inkscape:window-y="394"
   inkscape:window-maximized="0"
   inkscape:current-layer="Layer_1" />
<g
   id="g3935">
	<path
   fill="#BE1E2D"
   d="M63.73,33.992c-0.146,16.765-13.855,30.233-30.624,30.086l-3.199-0.029   C13.138,63.898-0.328,50.188-0.177,33.424l0.027-3.201C0,13.458,13.71-0.011,30.475,0.137l3.2,0.03   C50.44,0.314,63.907,14.027,63.762,30.791L63.73,33.992z"
   id="path3937" />
	<path
   fill="#8B182C"
   d="M46.595,3.21c1.823,3.949,2.854,8.333,2.814,12.97l-0.027,3.202C49.23,36.15,35.521,49.615,18.757,49.466   l-3.2-0.027c-4.639-0.042-9.007-1.149-12.924-3.044C7.404,56.721,17.779,63.94,29.907,64.049l3.199,0.029   c16.769,0.147,30.478-13.321,30.624-30.086l0.031-3.202C63.866,18.662,56.832,8.163,46.595,3.21z"
   id="path3939" />
	<path
   fill="#FFFFFF"
   d="M58.277,34.294c-0.034,3.737-3.094,6.744-6.833,6.711l-39.463-0.352c-3.74-0.033-6.743-3.093-6.708-6.833   l0.008-0.97c0.033-3.74,3.091-6.744,6.831-6.711l39.463,0.351c3.742,0.034,6.742,3.093,6.709,6.833L58.277,34.294z"
   id="path3941" />
</g>
</svg>
